svgs/sharp-light/tree-deciduous.svg

<svg xmlns="http://www.w3.org/2000/svg" viewBox="0 0 512 512"><!--! Font Awesome Pro 6.6.0 by @fontawesome - https://fontawesome.com License - https://fontawesome.com/license (Commercial License) Copyright 2024 Fonticons, Inc. --><path d="M177.7 95.6L174 113.4l-17.2-5.9c-6.5-2.2-13.5-3.5-20.8-3.5c-35.3 0-64 28.7-64 64c0 13.2 4 25.4 10.8 35.6l11.5 17.2-19.5 6.8C49.9 236.3 32 260.1 32 288l0 64 208 0 0-208 0-16 32 0 0 16 0 208 208 0 0-64c0-27.9-17.9-51.7-42.8-60.4l-19.5-6.8 11.5-17.2C436 193.4 440 181.2 440 168c0-35.3-28.7-64-64-64c-7.3 0-14.3 1.2-20.8 3.5L338 113.4l-3.7-17.8C326.8 59.3 294.5 32 256 32s-70.8 27.3-78.3 63.6zM240 384L16 384 0 384l0-16 0-80c0-35.3 19.1-66.2 47.5-82.8c-4.8-11.4-7.5-24-7.5-37.2c0-53 43-96 96-96c5.1 0 10.1 .4 14.9 1.2C166.7 30.4 207.8 0 256 0s89.3 30.4 105.1 73.2c4.9-.8 9.9-1.2 14.9-1.2c53 0 96 43 96 96c0 13.2-2.7 25.7-7.5 37.2C492.9 221.8 512 252.7 512 288l0 80 0 16-16 0-224 0 0 112 0 16-32 0 0-16 0-112z"/></svg>

<svg xmlns="http://www.w3.org/2000/svg" viewBox="0 0 512 512"><!--! Font Awesome Pro 6.4.2 by @fontawesome - https://fontawesome.com License - https://fontawesome.com/license (Commercial License) Copyright 2023 Fonticons, Inc. --><path d="M177.7 95.6L174 113.4l-17.2-5.9c-6.5-2.2-13.5-3.5-20.8-3.5c-35.3 0-64 28.7-64 64c0 13.2 4 25.4 10.8 35.6l11.5 17.2-19.5 6.8C49.9 236.3 32 260.1 32 288v64H240V144 128h32v16V352H480V288c0-27.9-17.9-51.7-42.8-60.4l-19.5-6.8 11.5-17.2C436 193.4 440 181.2 440 168c0-35.3-28.7-64-64-64c-7.3 0-14.3 1.2-20.8 3.5L338 113.4l-3.7-17.8C326.8 59.3 294.5 32 256 32s-70.8 27.3-78.3 63.6zM240 384H16 0V368 288c0-35.3 19.1-66.2 47.5-82.8c-4.8-11.4-7.5-24-7.5-37.2c0-53 43-96 96-96c5.1 0 10.1 .4 14.9 1.2C166.7 30.4 207.8 0 256 0s89.3 30.4 105.1 73.2c4.9-.8 9.9-1.2 14.9-1.2c53 0 96 43 96 96c0 13.2-2.7 25.7-7.5 37.2C492.9 221.8 512 252.7 512 288v80 16H496 272V496v16H240V496 384z"/></svg>
